src/images/tick.svg

<svg width="11" height="10" viewBox="0 0 11 10" fill="none" xmlns="http://www.w3.org/2000/svg">
    <path d="M9.98889 1.33341L9.66082 1.08207C9.25072 0.767902 8.64807 0.848521 8.33497 1.25943L4.28559 6.57392L2.32038 5.09007C1.91029 4.7759 1.30763 4.85652 0.994532 5.26743L0.744055 5.59616C0.430958 6.00707 0.508556 6.58714 0.921882 6.92548L3.95657 9.25034C4.17529 9.4179 4.42605 9.45816 4.66711 9.42591C4.90817 9.39366 5.13631 9.26474 5.30652 9.06975L10.1667 2.66273C10.4798 2.25182 10.399 1.64758 9.98889 1.33341Z" fill="none"/>
</svg>

<svg width="11" height="10" viewBox="0 0 11 10" fill="none" xmlns="http://www.w3.org/2000/svg"><path d="M9.989 1.333l-.328-.25a.952.952 0 00-1.326.176l-4.05 5.315L2.32 5.09a.952.952 0 00-1.325.177l-.25.33c-.314.41-.236.99.177 1.328L3.957 9.25c.218.168.47.208.71.176.241-.032.47-.161.64-.356l4.86-6.407a.959.959 0 00-.178-1.33z"/></svg>
